assets/icons/24px/outline/rocket-24px.svg

<svg width="24" height="24" viewBox="0 0 24 24" fill="none" xmlns="http://www.w3.org/2000/svg">
<path d="M8 11.0172C8 8.41675 8.88504 5.8937 10.5095 3.86307V3.86307C11.2737 2.90793 12.7263 2.90793 13.4905 3.86307V3.86307C15.115 5.8937 16 8.41675 16 11.0172V13.7791C16 14.9189 16 15.4889 15.7745 15.9226C15.5848 16.2874 15.2874 16.5848 14.9226 16.7745C14.4889 17 13.9189 17 12.7791 17H11.2209C10.0811 17 9.51114 17 9.0774 16.7745C8.71263 16.5848 8.41517 16.2874 8.22551 15.9226C8 15.4889 8 14.9189 8 13.7791V11.0172Z" stroke="white" stroke-width="2"/>
<path d="M13 8C13 8.55228 12.5523 9 12 9C11.4477 9 11 8.55228 11 8C11 7.44772 11.4477 7 12 7C12.5523 7 13 7.44772 13 8Z" fill="white"/>
<path d="M16 9.5L16.8541 10.7812C18.6791 13.5187 19.5916 14.8874 19.0263 15.9437C18.461 17 16.816 17 13.5259 17H10.4741C7.18402 17 5.53899 17 4.97368 15.9437C4.40838 14.8874 5.32087 13.5187 7.14587 10.7812L8 9.5" stroke="white" stroke-width="2"/>
<path d="M12 20C12 20.781 12 22 12 22M15 20V21M9 20V21" stroke="white" stroke-width="2" stroke-linecap="round"/>
</svg>

<svg width="24" height="24" fill="none" xmlns="http://www.w3.org/2000/svg"><path d="M8 11.017c0-2.6.885-5.123 2.51-7.154a1.909 1.909 0 0 1 2.98 0A11.452 11.452 0 0 1 16 11.017v2.762c0 1.14 0 1.71-.226 2.144a2 2 0 0 1-.851.851c-.434.226-1.004.226-2.144.226h-1.558c-1.14 0-1.71 0-2.144-.226a2 2 0 0 1-.851-.851C8 15.489 8 14.919 8 13.779v-2.762z" stroke="#fff" stroke-width="2"/><path d="M13 8a1 1 0 1 1-2 0 1 1 0 0 1 2 0z" fill="#fff"/><path d="M16 9.5l.854 1.281c1.825 2.738 2.738 4.106 2.172 5.163C18.461 17 16.816 17 13.526 17h-3.052c-3.29 0-4.935 0-5.5-1.056-.566-1.057.347-2.425 2.172-5.163L8 9.5" stroke="#fff" stroke-width="2"/><path d="M12 20v2m3-2v1m-6-1v1" stroke="#fff" stroke-width="2" stroke-linecap="round"/></svg>
